frontend/public/check.svg

<svg width="19" height="17" viewBox="0 0 19 17" fill="none" xmlns="http://www.w3.org/2000/svg">
<path d="M6.00008 2V5H3.00008V2H6.00008ZM1.00008 0V7H8.0001V0H1.00008ZM11.0001 0H19.0001V2H11.0001V0ZM11.0001 7H19.0001V9H11.0001V7ZM11.0001 14H19.0001V16H11.0001V14ZM8.7072 12.2071L7.29297 10.7929L4.00008 14.0858L2.20718 12.2929L0.792969 13.7071L4.00008 16.9142L8.7072 12.2071Z" fill="#284CE5"/>
</svg>

<svg xmlns="http://www.w3.org/2000/svg" width="19" height="17" fill="none"><path fill="#284CE5" d="M6 2v3H3V2zM1 0v7h7V0zm10 0h8v2h-8zm0 7h8v2h-8zm0 7h8v2h-8zm-2.293-1.793-1.414-1.414L4 14.086l-1.793-1.793-1.414 1.414L4 16.914z"/></svg>
